public/assets/imgs/page/homepage5/software-hover.svg

<svg width="27" height="26" viewBox="0 0 27 26" fill="none" xmlns="http://www.w3.org/2000/svg">
<path d="M13.4601 2.25595C7.62474 2.25595 2.88876 6.99193 2.88876 12.8273C2.88876 18.6627 7.62474 23.3987 13.4601 23.3987C19.2955 23.3987 24.0315 18.6627 24.0315 12.8273C24.0315 6.99193 19.2955 2.25595 13.4601 2.25595ZM13.4601 5.42736C15.215 5.42736 16.6315 6.84393 16.6315 8.59877C16.6315 10.3536 15.215 11.7702 13.4601 11.7702C11.7053 11.7702 10.2887 10.3536 10.2887 8.59877C10.2887 6.84393 11.7053 5.42736 13.4601 5.42736ZM13.4601 20.4387C12.2041 20.4387 10.9676 20.1279 9.86088 19.5339C8.75415 18.94 7.81162 18.0814 7.11731 17.0347C7.14903 14.931 11.3459 13.7787 13.4601 13.7787C15.5638 13.7787 19.7712 14.931 19.803 17.0347C19.1087 18.0814 18.1661 18.94 17.0594 19.5339C15.9527 20.1279 14.7162 20.4387 13.4601 20.4387Z" fill="white"/>
</svg>

<svg width="27" height="26" fill="none" xmlns="http://www.w3.org/2000/svg"><path d="M13.46 2.256C7.625 2.256 2.89 6.992 2.89 12.827c0 5.836 4.736 10.572 10.571 10.572s10.572-4.736 10.572-10.572c0-5.835-4.736-10.571-10.572-10.571Zm0 3.171A3.167 3.167 0 0 1 16.631 8.6a3.167 3.167 0 0 1-3.17 3.171A3.167 3.167 0 0 1 10.288 8.6a3.167 3.167 0 0 1 3.171-3.172Zm0 15.012a7.61 7.61 0 0 1-6.343-3.404c.032-2.104 4.229-3.256 6.343-3.256 2.104 0 6.311 1.152 6.343 3.256a7.611 7.611 0 0 1-6.343 3.404Z" fill="#fff"/></svg>
